system_files/shared/usr/share/ublue-os/bazzite/logo.svg

<?xml version="1.0" encoding="UTF-8" standalone="no"?>
<svg
   width="600"
   height="600"
   viewBox="0 0 600 600"
   fill="none"
   version="1.1"
   id="svg8"
   xmlns="http://www.w3.org/2000/svg"
   xmlns:svg="http://www.w3.org/2000/svg">
  <path
     d="M 50,150 C 50,94.7715 94.7715,50 150,50 h 150 c 138.071,0 250,111.929 250,250 v 0 c 0,138.071 -111.929,250 -250,250 v 0 C 161.929,550 50,438.071 50,300 Z"
     fill="url(#paint0_linear_1016_105)"
     id="path1"
     style="fill:url(#paint0_linear_1016_105)" />
  <path
     fill-rule="evenodd"
     clip-rule="evenodd"
     d="m 178,50 h 64 V 178 H 376.185 C 432.416,178 478,223.584 478,279.815 478,389.269 389.27,478 279.815,478 223.584,478 178,432.416 178,376.185 V 242 H 50 v -64 h 128 z m 64,192 V 376.185 C 242,397.07 258.93,414 279.815,414 353.923,414 414,353.923 414,279.815 414,258.93 397.07,242 376.185,242 Z"
     fill="#ffffff"
     fill-opacity="0.5"
     id="path2" />
  <path
     d="M 242,110 C 242,93.4315 228.569,80 212,80 h -4 c -16.569,0 -30,13.4315 -30,30 v 68 h -68 c -16.5685,0 -30,13.431 -30,30 v 4 c 0,16.569 13.4315,30 30,30 h 68 v 68 c 0,16.569 13.431,30 30,30 h 4 c 16.569,0 30,-13.431 30,-30 v -68 h 68 c 16.569,0 30,-13.431 30,-30 v -4 c 0,-16.569 -13.431,-30 -30,-30 h -68 z"
     fill="#ffffff"
     fill-opacity="0.7"
     id="path3" />
  <path
     d="m 312.5,205.67 c 3.333,1.924 3.333,6.736 0,8.66 l -21,12.124 c -3.333,1.925 -7.5,-0.481 -7.5,-4.33 v -24.248 c 0,-3.849 4.167,-6.255 7.5,-4.33 z"
     fill="#ffffff"
     id="path4" />
  <path
     d="m 214.33,312.5 c -1.924,3.333 -6.736,3.333 -8.66,0 l -12.124,-21 c -1.925,-3.333 0.481,-7.5 4.33,-7.5 h 24.248 c 3.849,0 6.255,4.167 4.33,7.5 z"
     fill="#ffffff"
     id="path5" />
  <path
     d="m 205.67,107.5 c 1.924,-3.333 6.736,-3.333 8.66,0 l 12.124,21 c 1.925,3.333 -0.481,7.5 -4.33,7.5 h -24.248 c -3.849,0 -6.255,-4.167 -4.33,-7.5 z"
     fill="#ffffff"
     id="path6" />
  <path
     d="m 107.5,214.33 c -3.333,-1.924 -3.333,-6.736 0,-8.66 l 21,-12.124 c 3.333,-1.925 7.5,0.481 7.5,4.33 v 24.248 c 0,3.849 -4.167,6.255 -7.5,4.33 z"
     fill="#ffffff"
     id="path7" />
  <defs
     id="defs8">
    <linearGradient
       id="paint0_linear_1016_105"
       x1="50"
       y1="50"
       x2="550"
       y2="550"
       gradientUnits="userSpaceOnUse">
      <stop
         offset="0.0684898"
         stop-color="#0047AB"
         id="stop7" />
      <stop
         offset="0.741212"
         stop-color="#8A2BE2"
         id="stop8" />
    </linearGradient>
  </defs>
</svg>

<svg width="600" height="600" viewBox="0 0 600 600" fill="none" xmlns="http://www.w3.org/2000/svg">
<path d="M50 150C50 94.7715 94.7715 50 150 50H300C438.071 50 550 161.929 550 300V300C550 438.071 438.071 550 300 550V550C161.929 550 50 438.071 50 300V150Z" fill="url(#paint0_linear_1016_105)"/>
<path fill-rule="evenodd" clip-rule="evenodd" d="M178 50H242V178H376.185C432.416 178 478 223.584 478 279.815C478 389.269 389.27 478 279.815 478C223.584 478 178 432.416 178 376.185V242H50L50 178L178 178V50ZM242 242V376.185C242 397.07 258.93 414 279.815 414C353.923 414 414 353.923 414 279.815C414 258.93 397.07 242 376.185 242H242Z" fill="white" fill-opacity="0.5"/>
<path d="M242 110C242 93.4315 228.569 80 212 80H208C191.431 80 178 93.4315 178 110L178 178H110C93.4315 178 80 191.431 80 208L80 212C80 228.569 93.4315 242 110 242H178V310C178 326.569 191.431 340 208 340H212C228.569 340 242 326.569 242 310V242L310 242C326.569 242 340 228.569 340 212V208C340 191.431 326.569 178 310 178H242L242 110Z" fill="white" fill-opacity="0.7"/>
<path d="M312.5 205.67C315.833 207.594 315.833 212.406 312.5 214.33L291.5 226.454C288.167 228.379 284 225.973 284 222.124L284 197.876C284 194.027 288.167 191.621 291.5 193.546L312.5 205.67Z" fill="white"/>
<path d="M214.33 312.5C212.406 315.833 207.594 315.833 205.67 312.5L193.546 291.5C191.621 288.167 194.027 284 197.876 284L222.124 284C225.973 284 228.379 288.167 226.454 291.5L214.33 312.5Z" fill="white"/>
<path d="M205.67 107.5C207.594 104.167 212.406 104.167 214.33 107.5L226.454 128.5C228.379 131.833 225.973 136 222.124 136H197.876C194.027 136 191.621 131.833 193.546 128.5L205.67 107.5Z" fill="white"/>
<path d="M107.5 214.33C104.167 212.406 104.167 207.594 107.5 205.67L128.5 193.546C131.833 191.621 136 194.027 136 197.876L136 222.124C136 225.973 131.833 228.379 128.5 226.454L107.5 214.33Z" fill="white"/>
<defs>
<linearGradient id="paint0_linear_1016_105" x1="50" y1="50" x2="550" y2="550" gradientUnits="userSpaceOnUse">
<stop offset="0.0684898" stop-color="#0047AB"/>
<stop offset="0.741212" stop-color="#8A2BE2"/>
</linearGradient>
</defs>
</svg>
